X: 1
T: The Long Bow
R: jig
M: 6/8
L: 1/8
K: Emin
F|:"E,in"GEF EF/G/A|BEe dBA|FDF ded|"A,out"Aag "B,out"fed|
efe BAF|"Dout"ded AdA,|DFA ded|1"B,out"BAF "E,in"E2F:|2BAF E2B||
|:"E,in"e2B "A,in"a2A|BGE EFE|d2D AdA,|DFA ded|
BAF "B,in"GEE|BAF DFA|"Din"dag "F,out"fed|1"B,Fout"BAF "E,in"E2B:|2BAF E2F||



